polaris-icons/icons/new-icons/FlipCameraMajor.svg

<svg width="20" height="20" viewBox="0 0 20 20" fill="none" xmlns="http://www.w3.org/2000/svg">
<path d="M9.46967 6.21967C9.76256 5.92678 10.2374 5.92678 10.5303 6.21967L12.0303 7.71967C12.3232 8.01256 12.3232 8.48744 12.0303 8.78033L10.5303 10.2803C10.2374 10.5732 9.76256 10.5732 9.46967 10.2803C9.17678 9.98744 9.17678 9.51256 9.46967 9.21967L9.65543 9.03391C8.85394 9.19396 8.25 9.90145 8.25 10.75C8.25 11.7165 9.0335 12.5 10 12.5H10.2941C11.0982 12.5 11.75 11.8482 11.75 11.0441C11.75 10.6299 12.0858 10.2941 12.5 10.2941C12.9142 10.2941 13.25 10.6299 13.25 11.0441C13.25 12.6766 11.9266 14 10.2941 14H10C8.20507 14 6.75 12.5449 6.75 10.75C6.75 9.05528 8.04714 7.66353 9.70275 7.51341L9.46967 7.28033C9.17678 6.98744 9.17678 6.51256 9.46967 6.21967Z" fill="#4A4A4A"/>
<path fill-rule="evenodd" clip-rule="evenodd" d="M6.14903 5.47171C6.6241 4.5668 7.56183 4 8.58387 4H11.4161C12.4382 4 13.3759 4.5668 13.851 5.47171L14.1966 6.13003C14.316 6.35751 14.5518 6.5 14.8087 6.5C16.0189 6.5 17 7.48109 17 8.69132V13.25C17 14.7688 15.7688 16 14.25 16H5.75C4.23122 16 3 14.7688 3 13.25V8.69132C3 7.48109 3.98109 6.5 5.19132 6.5C5.44824 6.5 5.68398 6.35751 5.80341 6.13003L6.14903 5.47171ZM8.58387 5.5C8.11931 5.5 7.69307 5.75764 7.47712 6.16896L7.1315 6.82728C6.75294 7.54835 6.00572 8 5.19132 8C4.80951 8 4.5 8.30951 4.5 8.69132V13.25C4.5 13.9404 5.05964 14.5 5.75 14.5H14.25C14.9404 14.5 15.5 13.9404 15.5 13.25V8.69132C15.5 8.30951 15.1905 8 14.8087 8C13.9943 8 13.2471 7.54835 12.8685 6.82728L12.5229 6.16896C12.3069 5.75764 11.8807 5.5 11.4161 5.5H8.58387Z" fill="#4A4A4A"/>
</svg>

<svg viewBox="0 0 20 20" xmlns="http://www.w3.org/2000/svg"><path d="M9.47 6.22a.75.75 0 0 1 1.06 0l1.5 1.5a.75.75 0 0 1 0 1.06l-1.5 1.5a.75.75 0 1 1-1.06-1.06l.185-.186a1.75 1.75 0 0 0 .345 3.466h.294c.804 0 1.456-.652 1.456-1.456a.75.75 0 0 1 1.5 0 2.956 2.956 0 0 1-2.956 2.956h-.294a3.25 3.25 0 0 1-.297-6.487l-.233-.233a.75.75 0 0 1 0-1.06Z" fill="#5C5F62"/><path fill-rule="evenodd" d="M6.149 5.472a2.75 2.75 0 0 1 2.435-1.472h2.832a2.75 2.75 0 0 1 2.435 1.472l.346.658c.119.228.355.37.612.37 1.21 0 2.191.981 2.191 2.191v4.559a2.75 2.75 0 0 1-2.75 2.75h-8.5a2.75 2.75 0 0 1-2.75-2.75v-4.559c0-1.21.981-2.191 2.191-2.191a.691.691 0 0 0 .612-.37l.346-.658Zm2.435.028c-.465 0-.89.258-1.107.669l-.346.658a2.191 2.191 0 0 1-1.94 1.173.691.691 0 0 0-.691.691v4.559c0 .69.56 1.25 1.25 1.25h8.5c.69 0 1.25-.56 1.25-1.25v-4.559a.691.691 0 0 0-.691-.691 2.191 2.191 0 0 1-1.94-1.173l-.346-.658a1.25 1.25 0 0 0-1.107-.669h-2.832Z" fill="#5C5F62"/></svg>
